X:1
T:Pas Seul [1]
N:”Danced by Miss Margaret Burnett of Leys”
M:2/4
L:1/8
B:Archibald Duff – A Choice Selection of Minuets, Favourite Airs, Hornpipes, Waltzs &c.
B:Book First (Edinburgh, c. 1812, p. 8)
B:  https://digital.nls.uk/special-collections-of-printed-music/archive/105810922
N:Archibald Duff (c. 1770-c. 1840?) was a musician (along with his brother Charles) and dancing
N:master, of Montrose and Aberdeen, and is recorded as being a Professor of Music residing at
N:Clayills Cottage, Aberdeen in 1837.
N:The volume is dedicated to Lady Mary Ramsay of Balmain
Z:AK/Fiddler’s Companion
K:C
cc {d}c/>B/c/>e/|d- g>.f.e/.d/| cc {d}c/>B/c/>e/|d/>c/B/>A/ G/>G/A/>B/|cc {d}c/>B/c/>e/|
d- g>.f.e/.d/| cc {e}d/>c/d/>e/|cecz:|B/>g/ {a}(g/^f/4g/4) d/>g/ {a}g/(f/4g/4)|(e/f/).g/.a/ (g/e/).d/.c/|
B/>g/ {a}(g/^f/4g/4) d/>g/  {a}(g/f/4f/4)|(e/f/).g/.a/ .g/(e/d/c/)|a/>f/c' .g.e|a/>f/c' .g/.c|
a/>f/c'/>a/ g/>e/d/>c/|B/>c/f/>e/ d/>G/A/>B/|cc {d}c/>B/c/>e/|(d g>)f.e/.d/|cc {d}c/>B/c/>e/|
d/>c/B/>A/ G/>G/A/>B/|cc {d}c/>B/c/>e/|(d g>)f.e/.d/|cc {e}d/>c/d/>e/|cec z||

